cssgg/arrow-left-r.svg

<svg
  width="24"
  height="24"
  viewBox="0 0 24 24"
  fill="none"
  xmlns="http://www.w3.org/2000/svg"
>
  <path
    d="M11.9481 14.8285L10.5339 16.2427L6.29126 12L10.5339 7.7574L11.9481 9.17161L10.1197 11H17.6568V13H10.1197L11.9481 14.8285Z"
    fill="currentColor"
  />
  <path
    fill-rule="evenodd"
    clip-rule="evenodd"
    d="M23 19C23 21.2091 21.2091 23 19 23H5C2.79086 23 1 21.2091 1 19V5C1 2.79086 2.79086 1 5 1H19C21.2091 1 23 2.79086 23 5V19ZM19 21H5C3.89543 21 3 20.1046 3 19V5C3 3.89543 3.89543 3 5 3H19C20.1046 3 21 3.89543 21 5V19C21 20.1046 20.1046 21 19 21Z"
    fill="currentColor"
  />
</svg>

<svg viewBox="0 0 24 24" xmlns="http://www.w3.org/2000/svg"><g><path d="M11.94 14.82l-1.42 1.41 -4.25-4.25 4.24-4.25 1.41 1.41 -1.83 1.82h7.53v2h-7.54l1.82 1.82Z"/><path fill-rule="evenodd" d="M23 19c0 2.2-1.8 4-4 4H5c-2.21 0-4-1.8-4-4V5c0-2.21 1.79-4 4-4h14c2.2 0 4 1.79 4 4v14Zm-4 2H5c-1.11 0-2-.9-2-2V5c0-1.11.89-2 2-2h14c1.1 0 2 .89 2 2v14c0 1.1-.9 2-2 2Z"/></g></svg>
